svgs/congstar.svg

<svg xmlns="http://www.w3.org/2000/svg" viewBox="0 0 192 192"><path fill="none" stroke="#000" stroke-linecap="round" stroke-linejoin="round" stroke-width="8" d="m129.501 60.501 35.898-13.565c-16.891-19.099-45.512-32.341-71.182-30.211a88.843 88.843 0 0 0-38.455 13.396 88.797 88.797 0 0 0-28.431 29.146 79.75 79.75 0 0 0-.92 71.832 87.403 87.403 0 0 0 27.958 30.087 87.432 87.432 0 0 0 38.621 13.999c26.116 2.003 42.205-5.751 59.829-16.648a59.89 59.89 0 0 0 20.864-24.355l-31.603-9.865c-3.002-.938-6.608-1.86-8.897 2.773l-18.141 36.726a4.667 4.667 0 0 1-7.374 1.56 4.673 4.673 0 0 1-1.447-2.484l-8.399-44.395a8.377 8.377 0 0 0-6.98-8.054L43.592 98.42c-3.408-.867-2.364-5.676 0-6.474L84.36 78.188c3.729-1.257 4.229-4.48 3.683-7.823l-6.712-41.003c-.486-2.968 4.268-5.701 6.405-3.468l31.64 33.064a9.682 9.682 0 0 0 10.125 1.542Z"/></svg>

<svg
    xmlns="http://www.w3.org/2000/svg"
    viewBox="0 0 192 192"
    id="vector">
    <path
        id="path"
        d="M 129.501 60.501 L 165.399 46.936 C 148.508 27.837 119.887 14.595 94.217 16.725 C 80.534 18.153 67.369 22.739 55.762 30.121 C 44.155 37.504 34.421 47.482 27.331 59.267 C 21.569 70.333 18.484 82.599 18.324 95.073 C 18.164 107.548 20.934 119.888 26.411 131.099 C 33.207 143.205 42.792 153.52 54.369 161.186 C 65.947 168.853 79.187 173.652 92.99 175.185 C 119.106 177.188 135.195 169.434 152.819 158.537 C 161.859 152.466 169.073 144.044 173.683 134.182 L 142.08 124.317 C 139.078 123.379 135.472 122.457 133.183 127.09 L 115.042 163.816 C 114.639 164.712 113.963 165.457 113.111 165.947 C 112.259 166.436 111.275 166.644 110.297 166.542 C 109.32 166.439 108.4 166.031 107.668 165.376 C 106.937 164.721 106.43 163.851 106.221 162.892 C 103.422 148.094 97.822 118.497 97.822 118.497 C 97.775 116.554 97.052 114.687 95.779 113.217 C 94.506 111.748 92.76 110.767 90.842 110.443 L 43.592 98.42 C 40.184 97.553 41.228 92.744 43.592 91.946 L 84.36 78.188 C 88.089 76.931 88.589 73.708 88.043 70.365 L 81.331 29.362 C 80.845 26.394 85.599 23.661 87.736 25.894 L 119.376 58.958 C 120.75 60.136 122.428 60.905 124.218 61.178 C 126.007 61.45 127.838 61.215 129.501 60.5 Z"
        fill="none"
        stroke="#000000"
        stroke-width="8"
        stroke-linecap="round"
        stroke-linejoin="round"/>
</svg>
